**kern
*staff1
!!pagebreak:original
*I"P1
=1-
*clefG2
*k[b-e-a-d-g-]
*M3/4
4.a-/
8dd-\
4ff\
=2
4aa-\
4ddd-\
4r
=3
ffq/
4fff\
8eee-\L
8ddd-\
8ccc\
8bb-\J
=4
8bb-\L
8aa-\
8ff\
8dd-\J
4a-/
=5
4.cc\
8ee-\
4gg-\
=6
4ccc\
4eee-\
4r
=7
gg-q/
4ggg-\
8eee-\L
8ccc\
8aa-\
8ccc\J
=8
4ddd-\
=
*-
